X: 22204
T: La Cardeuse
R: reel
M: 4/4
K: Gmajor
|:B2BB EBGB|dedB cdcB|AGFG A2FA|1 ,3 dedc BAGA:|2 d2F2 G3z:|4 d2F2 G2Bc||
|:dcBc d2g2|d2g2 d2g2|D2AB cBAB|1 ,2 c2a2 c2a2|a2a2 D2Bc:|3 c2a2 g2f2|g2g2 g3z||
|:d2ef g2fe|d2ef g2B2|c2B2 AGAc|B2G2 G3[1 z:|2 A||
|:BcBA G2BG|DFAF G2GA|BcBA G2g2|fdfa g2g2:|
|:DEGA B2AG|A2B2 c4|Bcdc B2AB|cBAF [1,2,3 GDE2:|4 G3z||

